images/svg/logn.svg

<svg width="18" height="17" viewBox="0 0 18 17" fill="none" xmlns="http://www.w3.org/2000/svg">
<path d="M15.5803 12.0326L11.6852 11.0024C11.6743 10.999 11.6635 10.9973 11.6523 10.9955C11.6449 10.9939 11.6341 10.9838 11.6341 10.9648V9.54863L12.0196 9.19853C12.478 8.78207 12.7583 8.23112 12.8093 7.6447L12.8292 7.41354C12.8366 7.33193 12.8418 7.2468 12.8492 7.15694C13.2531 7.00915 13.5825 6.62141 13.7007 6.11997C13.7972 5.71194 13.7336 5.30726 13.5261 5.00816C13.386 4.80583 13.184 4.66481 12.9548 4.60865C12.964 4.01886 12.9674 3.18069 12.9674 2.81178C12.9674 1.26148 11.5738 0 9.85995 0H9.78897C8.95557 0 8.13695 0.256599 7.482 0.72245C7.33818 0.824495 7.17278 0.882285 7.00896 0.87714C5.94819 0.87714 5.0787 1.66074 5.07133 2.62301C5.06959 2.76065 5.06959 2.90871 5.06959 3.06666C5.06959 3.32002 5.07133 4.01186 5.07697 4.50827C4.83495 4.55767 4.62217 4.70045 4.4749 4.91294C4.26749 5.21204 4.20202 5.61682 4.29849 6.02475C4.41667 6.52792 4.75878 6.92244 5.16619 7.06862C5.17879 7.26743 5.19342 7.45285 5.20805 7.62445L5.21167 7.64475C5.26077 8.23132 5.54088 8.78213 5.99754 9.19695L6.365 9.5353V10.965C6.365 10.9821 6.3524 10.9938 6.34327 10.9957C6.33241 10.9974 6.32155 10.9991 6.31242 11.0026L2.41921 12.0328C1.01676 12.3065 0 13.4811 0 14.831V16.3337C0 16.7009 0.320089 17 0.713015 17H17.287C17.6799 17 18 16.7009 18 16.3337V14.831C18.0001 13.4811 16.9834 12.3065 15.5805 12.0327L15.5803 12.0326Z" fill="white"/>
</svg>

<svg xmlns="http://www.w3.org/2000/svg" width="18" height="17" fill="none"><path fill="#fff" d="m15.58 12.033-3.895-1.03c-.01-.004-.021-.006-.033-.008-.007-.001-.018-.011-.018-.03V9.549l.386-.35c.458-.417.738-.968.79-1.554l.02-.231.02-.257c.403-.148.732-.536.85-1.037.097-.408.034-.813-.174-1.112a.98.98 0 0 0-.571-.4c.009-.59.012-1.427.012-1.796C12.967 1.262 11.574 0 9.86 0h-.071c-.833 0-1.652.257-2.307.722a.784.784 0 0 1-.473.155c-1.06 0-1.93.784-1.938 1.746l-.001.444c0 .253.001.945.007 1.441a.967.967 0 0 0-.602.405c-.208.299-.273.704-.177 1.112.119.503.46.897.868 1.044.013.198.027.384.042.555l.004.02c.049.587.329 1.138.786 1.553l.367.338v1.43c0 .017-.013.029-.022.03-.01.002-.021.004-.03.008l-3.894 1.03C1.017 12.307 0 13.48 0 14.83v1.503C0 16.7.32 17 .713 17h16.574c.393 0 .713-.3.713-.666V14.83c0-1.35-1.017-2.524-2.42-2.798Z"/></svg>
